X: 1
T: The Earl's Chair
R: reel
M: 4/4
L: 1/8
K: Dmaj
B2Bd BAFA | B2Bd BAFA | AF (3FFF DF (3FFF | AFdB AFEF |!
B2Bd BAFA | B2Bd BAFA | AFAB dcdf |edef d3z :||!
e2ec d2Bd | efec dFAB | e2ec d3e | fedB ADFA |!
e2ef eB(3BBB | gB(3BBB defg |afbf afef | gedB ADFA :||


Tune 221	Setting 24977

